public/location-planet.svg

<svg xmlns="http://www.w3.org/2000/svg" viewBox="0 0 512 512" style="height: 512px; width: 512px;"><path d="M0 0h512v512H0z" fill="#000" fill-opacity="1"></path><g class="" transform="translate(0,0)" style=""><path d="M253.47 17.406C123.76 17.406 18.437 122.76 18.437 252.47c0 129.707 105.324 235.06 235.03 235.06 129.707 0 235.063-105.353 235.063-235.06 0-129.71-105.355-235.064-235.06-235.064zM367.874 68.75c61.246 38.19 101.97 106.14 101.97 183.72 0 17.143-1.993 33.823-5.75 49.81l-34.25-18.06 22 54.874c-9.454 21.647-22.362 41.432-38 58.687l-43.158-30.936-64.625 47.72-61.656 6.967-13.906-41.78-49.72 26.844-68.093-18.938 9.157 36.594c-28.41-21.793-51.23-50.466-66-83.563L81.25 304.47l32.25 17.124 59.22-9.875 2.843-40.908-37.344-1.718 4.905-17.844 30.78-25.313-25.093-15.625 67.22-38.593-45.345-29.657-66.625 40.187-49.437-15.28c13.812-32.14 35.21-60.22 61.906-82.064l-3.75 44.375 43.376-34.124 72 22.22-22.5-27.407L233 75.562l26.813 28.468 71 9.845-3.5-34.47 41.468 12.657-.905-23.312zm1.156 120.03L278 199.47l28.906 43.218 3.156 64.468L339.25 321l11.438-28.375 62.656 48.656L395.78 294l6.408-48.344-43.75-22.72 10.593-34.155zM221 192.438l-31.594 21.188 36.47 14.78 16.686-14.78L221 192.437zm22.188 144.688l18.687 52.594 19.78-42.564-38.467-10.03z" fill="#fff" fill-opacity="1"></path></g></svg>

<?xml version="1.0" encoding="UTF-8" standalone="no"?>
<!DOCTYPE svg PUBLIC "-//W3C//DTD SVG 1.1//EN" "http://www.w3.org/Graphics/SVG/1.1/DTD/svg11.dtd">
<svg width="100%" height="100%" viewBox="0 0 512 512" version="1.1" xmlns="http://www.w3.org/2000/svg" xmlns:xlink="http://www.w3.org/1999/xlink" xml:space="preserve" xmlns:serif="http://www.serif.com/" style="fill-rule:evenodd;clip-rule:evenodd;stroke-linejoin:round;stroke-miterlimit:2;">
    <g>
        <path d="M253.47,17.406C123.76,17.406 18.437,122.76 18.437,252.47C18.437,382.177 123.761,487.53 253.467,487.53C383.174,487.53 488.53,382.177 488.53,252.47C488.53,122.76 383.175,17.406 253.47,17.406ZM367.874,68.75C429.12,106.94 469.844,174.89 469.844,252.47C469.844,269.613 467.851,286.293 464.094,302.28L429.844,284.22L451.844,339.094C442.39,360.741 429.482,380.526 413.844,397.781L370.686,366.845L306.061,414.565L244.405,421.532L230.499,379.752L180.779,406.596L112.686,387.658L121.843,424.252C93.433,402.459 70.613,373.786 55.843,340.689L81.25,304.47L113.5,321.594L172.72,311.719L175.563,270.811L138.219,269.093L143.124,251.249L173.904,225.936L148.811,210.311L216.031,171.718L170.686,142.061L104.061,182.248L54.624,166.968C68.436,134.828 89.834,106.748 116.53,84.904L112.78,129.279L156.156,95.155L228.156,117.375L205.656,89.968L233,75.562L259.813,104.03L330.813,113.875L327.313,79.405L368.781,92.062L367.876,68.75L367.874,68.75ZM369.03,188.78L278,199.47L306.906,242.688L310.062,307.156L339.25,321L350.688,292.625L413.344,341.281L395.78,294L402.188,245.656L358.438,222.936L369.031,188.781L369.03,188.78ZM221,192.438L189.406,213.626L225.876,228.406L242.562,213.626L221,192.437L221,192.438ZM243.188,337.126L261.875,389.72L281.655,347.156L243.188,337.126Z" style="fill:white;fill-rule:nonzero;"/>
    </g>
</svg>
